src/16/actions/filename-group-length.svg

<svg xmlns="http://www.w3.org/2000/svg" viewBox="0 0 16 16"><path d="M2 2v11h3v1h2v-1H6V5h6v1h1V4h-1V2H2zm1 1h8v1H5v8H3V3zm7.5 4A3.5 3.5 0 0 0 7 10.5a3.5 3.5 0 0 0 3.5 3.5 3.5 3.5 0 0 0 3.5-3.5A3.5 3.5 0 0 0 10.5 7zm0 1a2.5 2.5 0 0 1 2.5 2.5 2.5 2.5 0 0 1-2.5 2.5A2.5 2.5 0 0 1 8 10.5 2.5 2.5 0 0 1 10.5 8zM10 9v3h2v-1h-1V9h-1z" fill="currentColor" color="#5d656b"/></svg>

<svg xmlns="http://www.w3.org/2000/svg" viewBox="0 0 16 16">
  <defs id="defs3051">
    <style type="text/css" id="current-color-scheme">
      .ColorScheme-Text {
        color:#5d656b;
      }
      </style>
  </defs>
 <path style="fill:currentColor;fill-opacity:1;stroke:none" 
     d="M 2 2 L 2 2.75 L 2 13 L 3 13 L 4 13 L 5 13 L 5 14 L 7 14 L 7 13 L 6 13 L 6 5 L 12 5 L 12 6 L 13 6 L 13 5 L 13 4 L 12 4 L 12 2 L 10.642578 2 L 2.7851562 2 L 2 2 z M 3 3 L 11 3 L 11 4 L 5 4 L 5 5 L 5 12 L 4 12 L 3 12 L 3 3 z M 10.5 7 A 3.5 3.5 0 0 0 7 10.5 A 3.5 3.5 0 0 0 10.5 14 A 3.5 3.5 0 0 0 14 10.5 A 3.5 3.5 0 0 0 10.5 7 z M 10.5 8 A 2.5 2.5 0 0 1 13 10.5 A 2.5 2.5 0 0 1 10.5 13 A 2.5 2.5 0 0 1 8 10.5 A 2.5 2.5 0 0 1 10.5 8 z M 10 9 L 10 12 L 11 12 L 12 12 L 12 11 L 11 11 L 11 9 L 10 9 z "
     class="ColorScheme-Text"
     />
</svg>
